svgs/sharp-solid/clipboard-list.svg

<svg xmlns="http://www.w3.org/2000/svg" viewBox="0 0 384 512"><!--! Font Awesome Pro 6.6.0 by @fontawesome - https://fontawesome.com License - https://fontawesome.com/license (Commercial License) Copyright 2024 Fonticons, Inc. --><path d="M101.5 64C114.6 26.7 150.2 0 192 0s77.4 26.7 90.5 64L384 64l0 448L0 512 0 64l101.5 0zM224 96a32 32 0 1 0 -64 0 32 32 0 1 0 64 0zM160 352l0 32 16 0 128 0 16 0 0-32-16 0-128 0-16 0zM96 392a24 24 0 1 0 0-48 24 24 0 1 0 0 48zm64-136l0 32 16 0 128 0 16 0 0-32-16 0-128 0-16 0zM96 296a24 24 0 1 0 0-48 24 24 0 1 0 0 48z"/></svg>

<svg xmlns="http://www.w3.org/2000/svg" viewBox="0 0 384 512"><!--! Font Awesome Pro 6.4.0 by @fontawesome - https://fontawesome.com License - https://fontawesome.com/license (Commercial License) Copyright 2023 Fonticons, Inc. --><path d="M101.5 64C114.6 26.7 150.2 0 192 0s77.4 26.7 90.5 64H384V512H0V64H101.5zM224 96a32 32 0 1 0 -64 0 32 32 0 1 0 64 0zM160 352v32h16H304h16V352H304 176 160zM96 392a24 24 0 1 0 0-48 24 24 0 1 0 0 48zm64-136v32h16H304h16V256H304 176 160zM96 296a24 24 0 1 0 0-48 24 24 0 1 0 0 48z"/></svg>
